static/icons/companies/taicall.svg

<svg width="150" height="40" viewBox="0 0 150 40" fill="none" xmlns="http://www.w3.org/2000/svg">
<path fill-rule="evenodd" clip-rule="evenodd" d="M47.3333 2.66667H16C12.1534 2.66667 9.53667 2.67233 7.57715 2.93578C5.69434 3.18892 4.82228 3.63524 4.22876 4.22876C3.63524 4.82229 3.18892 5.69434 2.93578 7.57715C2.67233 9.53667 2.66667 12.1534 2.66667 16V24C2.66667 27.8466 2.67233 30.4633 2.93578 32.4228C3.18892 34.3057 3.63524 35.1777 4.22876 35.7712C4.82228 36.3648 5.69434 36.8111 7.57715 37.0642C9.53667 37.3277 12.1534 37.3333 16 37.3333H47.3333C51.1799 37.3333 53.7966 37.3277 55.7561 37.0642C57.639 36.8111 58.511 36.3648 59.1045 35.7712C59.6981 35.1777 60.1444 34.3057 60.3975 32.4229C60.661 30.4633 60.6666 27.8466 60.6666 24V16C60.6666 12.1534 60.661 9.53667 60.3975 7.57715C60.1444 5.69434 59.6981 4.82229 59.1045 4.22876C58.511 3.63524 57.639 3.18892 55.7561 2.93578C53.7966 2.67233 51.1799 2.66667 47.3333 2.66667ZM2.34314 2.34315C0 4.68629 0 8.45753 0 16V24C0 31.5425 0 35.3137 2.34314 37.6569C4.68629 40 8.45752 40 16 40H47.3333C54.8758 40 58.647 40 60.9902 37.6569C63.3333 35.3137 63.3333 31.5425 63.3333 24V16C63.3333 8.45753 63.3333 4.68629 60.9902 2.34315C58.647 0 54.8758 0 47.3333 0H16C8.45752 0 4.68629 0 2.34314 2.34315Z" fill="#121315"/>
<path fill-rule="evenodd" clip-rule="evenodd" d="M16.2059 10.5392C16.8285 9.91651 17.8381 9.91651 18.4608 10.5392L26.7941 18.8725C27.4168 19.4952 27.4168 20.5048 26.7941 21.1275L18.4608 29.4608C17.8381 30.0835 16.8285 30.0835 16.2059 29.4608C15.5832 28.8381 15.5832 27.8285 16.2059 27.2059L23.4117 20L16.2059 12.7941C15.5832 12.1714 15.5832 11.1619 16.2059 10.5392Z" fill="#121315"/>
<path d="M31.4153 28.3808C31.4153 27.4968 32.1319 26.7802 33.0159 26.7802H46.7116C47.6007 26.7802 48.3215 27.501 48.3215 28.3901C48.3215 29.2792 47.6007 30 46.7116 30H39.8684L33.0116 29.9814C32.1293 29.9791 31.4153 29.2631 31.4153 28.3808Z" fill="#121315"/>
<path d="M75.219 29.8001C74.3043 29.8001 73.5577 29.5201 72.979 28.9601C72.419 28.3814 72.139 27.6161 72.139 26.6641V18.8241H68.667V15.9121H72.139V11.6001H75.667V15.9121H79.475V18.8241H75.667V26.0481C75.667 26.6081 75.9283 26.8881 76.451 26.8881H79.139V29.8001H75.219Z" fill="#121315"/>
<path d="M85.8605 30.1921C84.8712 30.1921 83.9845 30.0241 83.2005 29.6881C82.4165 29.3334 81.7912 28.8294 81.3245 28.1761C80.8765 27.5041 80.6525 26.6921 80.6525 25.7401C80.6525 24.7881 80.8765 23.9948 81.3245 23.3601C81.7912 22.7068 82.4258 22.2214 83.2285 21.9041C84.0498 21.5681 84.9832 21.4001 86.0285 21.4001H89.8365V20.6161C89.8365 19.9628 89.6312 19.4308 89.2205 19.0201C88.8098 18.5908 88.1565 18.3761 87.2605 18.3761C86.3832 18.3761 85.7298 18.5814 85.3005 18.9921C84.8712 19.3841 84.5912 19.8974 84.4605 20.5321L81.2125 19.4401C81.4365 18.7308 81.7912 18.0868 82.2765 17.5081C82.7805 16.9108 83.4432 16.4348 84.2645 16.0801C85.1045 15.7068 86.1218 15.5201 87.3165 15.5201C89.1458 15.5201 90.5925 15.9774 91.6565 16.8921C92.7205 17.8068 93.2525 19.1321 93.2525 20.8681V26.0481C93.2525 26.6081 93.5138 26.8881 94.0365 26.8881H95.1565V29.8001H92.8045C92.1138 29.8001 91.5445 29.6321 91.0965 29.2961C90.6485 28.9601 90.4245 28.5121 90.4245 27.9521V27.9241H89.8925C89.8178 28.1481 89.6498 28.4468 89.3885 28.8201C89.1272 29.1748 88.7165 29.4921 88.1565 29.7721C87.5965 30.0521 86.8312 30.1921 85.8605 30.1921ZM86.4765 27.3361C87.4658 27.3361 88.2685 27.0654 88.8845 26.5241C89.5192 25.9641 89.8365 25.2268 89.8365 24.3121V24.0321H86.2805C85.6272 24.0321 85.1138 24.1721 84.7405 24.4521C84.3672 24.7321 84.1805 25.1241 84.1805 25.6281C84.1805 26.1321 84.3765 26.5428 84.7685 26.8601C85.1605 27.1774 85.7298 27.3361 86.4765 27.3361Z" fill="#121315"/>
<path d="M96.616 29.8001V15.9121H100.144V29.8001H96.616ZM98.38 14.2881C97.7453 14.2881 97.204 14.0828 96.756 13.6721C96.3267 13.2614 96.112 12.7201 96.112 12.0481C96.112 11.3761 96.3267 10.8348 96.756 10.4241C97.204 10.0134 97.7453 9.80811 98.38 9.80811C99.0333 9.80811 99.5747 10.0134 100.004 10.4241C100.433 10.8348 100.648 11.3761 100.648 12.0481C100.648 12.7201 100.433 13.2614 100.004 13.6721C99.5747 14.0828 99.0333 14.2881 98.38 14.2881Z" fill="#121315"/>
<path d="M102.934 29.8001V10.2001H106.461V29.8001H102.934Z" fill="#121315"/>
<path d="M115.775 30.1921C114.431 30.1921 113.208 29.9121 112.107 29.3521C111.024 28.7921 110.166 27.9801 109.531 26.9161C108.896 25.8521 108.579 24.5641 108.579 23.0521V22.6601C108.579 21.1481 108.896 19.8601 109.531 18.7961C110.166 17.7321 111.024 16.9201 112.107 16.3601C113.208 15.8001 114.431 15.5201 115.775 15.5201C117.1 15.5201 118.239 15.7534 119.191 16.2201C120.143 16.6868 120.908 17.3308 121.487 18.1521C122.084 18.9548 122.476 19.8694 122.663 20.8961L119.247 21.6241C119.172 21.0641 119.004 20.5601 118.743 20.1121C118.482 19.6641 118.108 19.3094 117.623 19.0481C117.156 18.7868 116.568 18.6561 115.859 18.6561C115.15 18.6561 114.506 18.8148 113.927 19.1321C113.367 19.4308 112.919 19.8881 112.583 20.5041C112.266 21.1014 112.107 21.8388 112.107 22.7161V22.9961C112.107 23.8734 112.266 24.6201 112.583 25.2361C112.919 25.8334 113.367 26.2908 113.927 26.6081C114.506 26.9068 115.15 27.0561 115.859 27.0561C116.923 27.0561 117.726 26.7854 118.267 26.2441C118.827 25.6841 119.182 24.9561 119.331 24.0601L122.747 24.8721C122.504 25.8614 122.084 26.7668 121.487 27.5881C120.908 28.3908 120.143 29.0254 119.191 29.4921C118.239 29.9588 117.1 30.1921 115.775 30.1921Z" fill="#121315"/>
<path d="M128.849 30.1921C127.86 30.1921 126.973 30.0241 126.189 29.6881C125.405 29.3334 124.78 28.8294 124.313 28.1761C123.865 27.5041 123.641 26.6921 123.641 25.7401C123.641 24.7881 123.865 23.9948 124.313 23.3601C124.78 22.7068 125.415 22.2214 126.217 21.9041C127.039 21.5681 127.972 21.4001 129.017 21.4001H132.825V20.6161C132.825 19.9628 132.62 19.4308 132.209 19.0201C131.799 18.5908 131.145 18.3761 130.249 18.3761C129.372 18.3761 128.719 18.5814 128.289 18.9921C127.86 19.3841 127.58 19.8974 127.449 20.5321L124.201 19.4401C124.425 18.7308 124.78 18.0868 125.265 17.5081C125.769 16.9108 126.432 16.4348 127.253 16.0801C128.093 15.7068 129.111 15.5201 130.305 15.5201C132.135 15.5201 133.581 15.9774 134.645 16.8921C135.709 17.8068 136.241 19.1321 136.241 20.8681V26.0481C136.241 26.6081 136.503 26.8881 137.025 26.8881H138.145V29.8001H135.793C135.103 29.8001 134.533 29.6321 134.085 29.2961C133.637 28.9601 133.413 28.5121 133.413 27.9521V27.9241H132.881C132.807 28.1481 132.639 28.4468 132.377 28.8201C132.116 29.1748 131.705 29.4921 131.145 29.7721C130.585 30.0521 129.82 30.1921 128.849 30.1921ZM129.465 27.3361C130.455 27.3361 131.257 27.0654 131.873 26.5241C132.508 25.9641 132.825 25.2268 132.825 24.3121V24.0321H129.269C128.616 24.0321 128.103 24.1721 127.729 24.4521C127.356 24.7321 127.169 25.1241 127.169 25.6281C127.169 26.1321 127.365 26.5428 127.757 26.8601C128.149 27.1774 128.719 27.3361 129.465 27.3361Z" fill="#121315"/>
<path d="M139.605 29.8001V10.2001H143.133V29.8001H139.605Z" fill="#121315"/>
<path d="M145.922 29.8001V10.2001H149.45V29.8001H145.922Z" fill="#121315"/>
</svg>

<svg xmlns="http://www.w3.org/2000/svg" width="150" height="40" fill="none"><path fill="#121315" fill-rule="evenodd" d="M47.333 2.667H16c-3.847 0-6.463.005-8.423.269-1.883.253-2.755.7-3.348 1.293-.594.593-1.04 1.465-1.293 3.348-.264 1.96-.27 4.576-.27 8.423v8c0 3.847.006 6.463.27 8.423.253 1.883.7 2.755 1.293 3.348.593.594 1.465 1.04 3.348 1.293 1.96.264 4.576.27 8.423.27h31.333c3.847 0 6.464-.006 8.423-.27 1.883-.253 2.755-.7 3.349-1.293.593-.593 1.04-1.465 1.293-3.348.263-1.96.269-4.576.269-8.423v-8c0-3.847-.006-6.463-.27-8.423-.253-1.883-.699-2.755-1.292-3.348-.594-.594-1.466-1.04-3.349-1.293-1.96-.264-4.576-.27-8.423-.27m-44.99-.324C0 4.686 0 8.458 0 16v8c0 7.543 0 11.314 2.343 13.657S8.458 40 16 40h31.333c7.543 0 11.314 0 13.657-2.343S63.333 31.543 63.333 24v-8c0-7.542 0-11.314-2.343-13.657S54.876 0 47.333 0H16C8.458 0 4.686 0 2.343 2.343" clip-rule="evenodd"/><path fill="#121315" fill-rule="evenodd" d="M16.206 10.54a1.594 1.594 0 0 1 2.255 0l8.333 8.333a1.595 1.595 0 0 1 0 2.255l-8.333 8.333a1.594 1.594 0 1 1-2.255-2.255L23.412 20l-7.206-7.206a1.594 1.594 0 0 1 0-2.255" clip-rule="evenodd"/><path fill="#121315" d="M31.415 28.38a1.6 1.6 0 0 1 1.6-1.6h13.697a1.61 1.61 0 0 1 0 3.22h-6.844l-6.856-.019a1.6 1.6 0 0 1-1.597-1.6M75.219 29.8c-.915 0-1.661-.28-2.24-.84-.56-.579-.84-1.344-.84-2.296v-7.84h-3.472v-2.912h3.472V11.6h3.528v4.312h3.808v2.912h-3.808v7.224c0 .56.261.84.784.84h2.688V29.8zm10.641.392c-.989 0-1.876-.168-2.66-.504-.784-.355-1.409-.859-1.876-1.512-.448-.672-.671-1.484-.671-2.436s.223-1.745.671-2.38c.467-.653 1.102-1.139 1.904-1.456.822-.336 1.755-.504 2.8-.504h3.808v-.784c0-.653-.205-1.185-.615-1.596-.411-.43-1.065-.644-1.96-.644-.878 0-1.531.205-1.96.616-.43.392-.71.905-.84 1.54l-3.248-1.092a5.61 5.61 0 0 1 1.064-1.932c.504-.597 1.166-1.073 1.987-1.428.84-.373 1.858-.56 3.053-.56 1.829 0 3.276.457 4.34 1.372s1.596 2.24 1.596 3.976v5.18c0 .56.26.84.784.84h1.12V29.8h-2.352c-.691 0-1.26-.168-1.709-.504a1.597 1.597 0 0 1-.672-1.344v-.028h-.532c-.074.224-.242.523-.504.896-.26.355-.672.672-1.232.952-.56.28-1.325.42-2.296.42m.617-2.856c.989 0 1.791-.27 2.407-.812.635-.56.953-1.297.953-2.212v-.28H86.28c-.654 0-1.167.14-1.54.42-.374.28-.56.672-.56 1.176 0 .504.195.915.588 1.232.391.317.96.476 1.707.476M96.616 29.8V15.912h3.528V29.8zm1.764-15.512c-.635 0-1.176-.205-1.624-.616-.43-.41-.644-.952-.644-1.624 0-.672.215-1.213.644-1.624.448-.41.99-.616 1.624-.616.653 0 1.195.205 1.624.616.429.41.644.952.644 1.624 0 .672-.215 1.213-.644 1.624-.43.41-.97.616-1.624.616m4.554 15.512V10.2h3.527v19.6zm12.841.392c-1.344 0-2.567-.28-3.668-.84a6.343 6.343 0 0 1-2.576-2.436c-.635-1.064-.952-2.352-.952-3.864v-.392c0-1.512.317-2.8.952-3.864a6.343 6.343 0 0 1 2.576-2.436c1.101-.56 2.324-.84 3.668-.84 1.325 0 2.464.233 3.416.7.952.467 1.717 1.11 2.296 1.932a6.474 6.474 0 0 1 1.176 2.744l-3.416.728a4.034 4.034 0 0 0-.504-1.512 2.8 2.8 0 0 0-1.12-1.064c-.467-.261-1.055-.392-1.764-.392-.709 0-1.353.159-1.932.476-.56.299-1.008.756-1.344 1.372-.317.597-.476 1.335-.476 2.212v.28c0 .877.159 1.624.476 2.24a3.52 3.52 0 0 0 1.344 1.372 4.15 4.15 0 0 0 1.932.448c1.064 0 1.867-.27 2.408-.812.56-.56.915-1.288 1.064-2.184l3.416.812a7.7 7.7 0 0 1-1.26 2.716c-.579.803-1.344 1.437-2.296 1.904-.952.467-2.091.7-3.416.7m13.074 0c-.989 0-1.876-.168-2.66-.504-.784-.355-1.409-.859-1.876-1.512-.448-.672-.672-1.484-.672-2.436s.224-1.745.672-2.38c.467-.653 1.102-1.139 1.904-1.456.822-.336 1.755-.504 2.8-.504h3.808v-.784c0-.653-.205-1.185-.616-1.596-.41-.43-1.064-.644-1.96-.644-.877 0-1.53.205-1.96.616-.429.392-.709.905-.84 1.54l-3.248-1.092a5.615 5.615 0 0 1 1.064-1.932c.504-.597 1.167-1.073 1.988-1.428.84-.373 1.858-.56 3.052-.56 1.83 0 3.276.457 4.34 1.372s1.596 2.24 1.596 3.976v5.18c0 .56.262.84.784.84h1.12V29.8h-2.352c-.69 0-1.26-.168-1.708-.504a1.597 1.597 0 0 1-.672-1.344v-.028h-.532c-.074.224-.242.523-.504.896-.261.355-.672.672-1.232.952-.56.28-1.325.42-2.296.42m.616-2.856c.99 0 1.792-.27 2.408-.812.635-.56.952-1.297.952-2.212v-.28h-3.556c-.653 0-1.166.14-1.54.42-.373.28-.56.672-.56 1.176 0 .504.196.915.588 1.232.392.317.962.476 1.708.476m10.14 2.464V10.2h3.528v19.6zm6.317 0V10.2h3.528v19.6z"/></svg>
